X:192 
T:Stay for Another While (reel)
T:Market Day
B:CRE3.127 (Fan go FÃÂÃÂÃÂÃÂ³illeach)
F:file ID: cre.3/192stay
N:"Market Day" is an Ed Reavy composition but thereÃÂÃÂ¢ÃÂ¢ÃÂÃÂ¬ÃÂ¢ÃÂÃÂ¢s no
mention of this in CRE.
L:1/8
R:reel %A-B-A
Q:180
M:C
K:D
fe|d2AG FDDE|FEFG ABcA|dcAG FDDF|(3fgf ecd2:|
(3ABc|defg afed|cdef gfec|defg (3aba fd|fgag fedc|
defg afed|cdef g3g|(3agf (3gfe fed2|eaag fgec||

%%%

